X:1
T: The Humors of Ballycastle
C:
R:Jig
Q:180
K:A
M:6/8
L:1/16
E2|A2G2A2 c2B2A2|f2a2f2 e2c2A2|A2G2A2 c2B2c2|F2G2A2 B2G2E2|A2G2A2 c2B2A2|f2a2f2 e2c2A2|B2d2B2 c2e2c2|A2B2A2 A4E2|
A2G2A2 c2B2A2|f2a2f2 e2c2A2|A2G2A2 c2B2c2|F2G2A2 B2G2E2|A2G2A2 c2B2A2|f2a2f2 e2c2A2|B2d2B2 c2e2c2|A2B2A2 A4g2|
a2g2f2 e2f2g2|a2b2a2 g2f2e2|cfz2f2 f4e2|cfz2f2 f4g2|a2g2f2 e2d2c2|f2a2f2 e2c2A2|B2d2B2 c2e2c2|A2B2A2 A4g2|
a2g2f2 e2f2g2|a2b2a2 g2f2e2|cfz2f2 f4e2|cfz2f2 f4g2|a2g2f2 e2d2c2|f2a2f2 e2c2A2|B2d2B2 c2e2c2|A2B2A2 A4||
